X:34
T:Keep the Countrey bonny Lassie
C:R. Petrie
S:Petrie's Second Collection of Strathspey Reels and Country Dances &c.
Z:Steve Wyrick , 6/5/04
N:Petrie's Second Collection, page 12
L:1/8
M:C|
R:Reel
K:A
f|AA/A/ (cA)    Bcdf| AA/A/   (cA)  eAcA         | dfce         Bcdf|ecac e2A   :|
g|(a/g/f/e/ cA) Bcdf|(a/g/f/e/ c)e (a/g/f/e/  c)e|(a/g/f/e/ cA) Bcdf|ecac e2 (Ag)|
  (a/g/f/e/ cA) Bcdf|(a/g/f/e/ c)e (a/g/f/e/  c)e|(a/g/f/e/ c)A Bcdf|ecac e2A   |]
